svg/200/rounded/signal_cellular_alt-fill.svg

<svg xmlns="http://www.w3.org/2000/svg" width="48" height="48" viewBox="0 -960 960 960"><path d="M267.529-200q-11.606 0-19.568-8.077Q240-216.154 240-227.692v-104.616q0-11.538 8.124-19.615Q256.249-360 267.855-360q11.606 0 19.568 8.077 7.962 8.077 7.962 19.615v104.616q0 11.538-8.125 19.615Q279.136-200 267.529-200Zm236.923 0q-11.606 0-19.568-8.077-7.961-8.077-7.961-19.615v-304.616q0-11.538 8.124-19.615Q493.172-560 504.778-560q11.607 0 19.568 8.077 7.962 8.077 7.962 19.615v304.616q0 11.538-8.125 19.615Q516.059-200 504.452-200Zm227.693 0q-11.606 0-19.568-8.077-7.962-8.077-7.962-19.615v-504.616q0-11.538 8.125-19.615Q720.864-760 732.471-760q11.606 0 19.568 8.077Q760-743.846 760-732.308v504.616q0 11.538-8.124 19.615Q743.751-200 732.145-200Z"/></svg>

<svg xmlns="http://www.w3.org/2000/svg" width="48" height="48" viewBox="0 -960 960 960"><path d="M267.53-200q-11.61 0-19.57-8.08-7.96-8.07-7.96-19.61v-104.62q0-11.54 8.12-19.61 8.13-8.08 19.74-8.08 11.6 0 19.56 8.08 7.96 8.07 7.96 19.61v104.62q0 11.54-8.12 19.61-8.12 8.08-19.73 8.08Zm236.92 0q-11.6 0-19.57-8.08-7.96-8.07-7.96-19.61v-304.62q0-11.54 8.13-19.61 8.12-8.08 19.73-8.08 11.6 0 19.57 8.08 7.96 8.07 7.96 19.61v304.62q0 11.54-8.13 19.61-8.12 8.08-19.73 8.08Zm227.69 0q-11.6 0-19.56-8.08-7.96-8.07-7.96-19.61v-504.62q0-11.54 8.12-19.61 8.12-8.08 19.73-8.08 11.61 0 19.57 8.08 7.96 8.07 7.96 19.61v504.62q0 11.54-8.12 19.61-8.13 8.08-19.74 8.08Z"/></svg>
